X: 12402
T: Faolan's
R: polka
M: 2/4
K: Amajor
|:E>F AB|ce c2|c/d/e fd|c2 {ec}B2|
[1 E>F AB|ce c2|dc Be|cA A2:|
[2 A>F EF|AB c2|dc Be|cA A2||
|:ce ec|d/c/B A2|ce ec|B2 RB2|
ce ec|fe c2|Ac B2|{cB}A2 A2:|

